X:1
T:Dear to the Heart of the Shepherd
T:Dear to the Heart of the Shepherd
T:William James Kirkpatrick
T:Mary B. Rich Wingate, 1899
T:Public Domain Courtesy of the Cyber Hymnal™
T:Public Domain Courtesy of the Cyber Hymnal™
C:William James Kirkpatrick
Z:Public Domain
Z:Courtesy of the Cyber Hymnal™
%%score ( 1 2 ) ( 3 4 )
L:1/8
Q:1/4=155
M:6/4
K:Ab
V:1 treble 
V:2 treble 
V:3 bass 
V:4 bass 
V:1
 [Ec]2 [=D=B]2 [Ec]2 [F=d]2 [Ec]2 [DB]2 | [Ec]6 [CA]6 | [FA]2 [=EG]2 [FA]2 [GB]2 [FA]2 [DF]2 | %3
w: 1.~Dear to the heart of the|Shep- herd,|Dear are the sheep of His|
w: 2.~Dear to the heart of the|Shep- herd,|Dear are the lambs of His|
w: 3.~Dear to the heart of the|Shep- herd,|Dear are the “nine- ty and|
w: 4.~Green are the pas- tures in-|vit- ing,|Sweet are the wa- ters and|
 [CE]6- [CE]4 z2 | [Ec]2 [=D=B]2 [Ec]2 [F=d]2 [Ec]2 [DB]2 | [Ec]6 [CA]6 | %6
w: fold; *|Dear is the love that He|gives them,|
w: fold; *|Some from the pas- tures are|stray- ing,|
w: nine”; *|Dear are the sheep that have|wan- dered,|
w: “still”; *|Lord, we will an- swer Thee|glad- ly,|
 [=DA]2 [DG]2 [DA]2 [Dc]2 [DB]2 [DA]2 | [DB]6- [DB]4 z2 | [Gd]2 [Fd]2 [Ed]2 [Gd]2 [Fd]2 [Ed]2 | %9
w: Dear- er than sil- ver or|gold. *|Dear to the heart of the|
w: Hun- gry and help- less and|cold. *|See, the good Shep- herd is|
w: Out in the des- ert to|pine. *|Hark! He is ear- nest- ly|
w: “Yes, bless- èd Mas- ter, we|will! *|Make us Thy true un- der-|
 d6 [Ac]6 | [ce]2 [Be]2 [Ae]2 [Ge]2 [Gd]2 [Ac]2 | [EB]6- [EB]4 z2 | %12
w: Shep- herd,|Dear are His “o- ther” lost|sheep; *|
w: seek- ing,|Seek- ing the lambs that are|lost; *|
w: call- ing,|Ten- der- ly plead- ing to-|day; *|
w: shep- herds,|Give us a love that is|deep; *|
 [Ac]2 [Gc]2 [Fc]2 [Ec]2 [=D=B]2 [Ec]2 | e6 [Fd]6 | [Ec]2 [DB]2 [CA]2 [CE]2 !fermata![Ec]2 [DB]2 | %15
w: O- ver the mount- ains He|fol- lows,|O- ver the wa- ters so|
w: Bring- ing them in with re-|joic- ing,|Saved at such in- fi- nite|
w: “Will you not seek for My|lost ones,|Off from My shel- ter a-|
w: Send us out in- to the|des- ert,|Seek- ing Thy wan- der- ing|
 [CA]6- [CA]4 z2 ||"^Refrain" A2 G2 F2 A2 G2 F2 | [=EG]6 C6 | %18
w: deep. *|||
w: cost. *|Out in the de- sert they|wan- der,|
w: stray?” *|||
w: sheep.” *|||
"^poco rit." [CA]2 [CA]2 [CA]2 [FB]2 [FA]2 [FB]2 | c6- [_Ec]4 z2 | %20
w: ||
w: Hun- gry and help- less and|cold; Off|
w: ||
w: ||
"^f a tempo" [Ec]2 [EB]2 [EA]2 [Ac]2 [EB]2 [EA]2 | e6 [Fd]6 | %22
w: ||
w: * to the res- cue He|hast- ens,|
w: ||
w: ||
 [Ec]2 [DB]2 [CA]2 [CE]2 !fermata!c2 [GB]2 | [EA]6- [EA]4 z2 |] %24
w: ||
w: Bring- ing them back to the|fold. *|
w: ||
w: ||
V:2
 x12 | x12 | x12 | x12 | x12 | x12 | x12 | x12 | x12 | (B2 F2 G2) x6 | x12 | x12 | x12 | %13
 (_G2 A2 G2) x6 | x12 | x12 || A2 G2 F2 A2 G2 F2 | x6 C6 | x12 | =E2 G2 F2 x6 | x12 | %21
 (_G2 A2 G2) x6 | x8 (EA) x2 | x12 |] %24
V:3
 [A,,A,]2 z2 [A,,A,]2 [A,,A,]2 z2 [A,,A,]2 | ([A,,A,]2 C,2 E,2) A,4 z2 | %2
w: ~ ~ ~ ~|~ * * ~|
 [D,A,]2 z2 [D,A,]2 [D,A,]2 z2 [D,A,]2 | ([A,,A,]2 C,2 E,2 A,4) z2 | %4
w: ~ ~ ~ ~|~ * * *|
 [A,,A,]2 z2 [A,,A,]2 [A,,A,]2 z2 [A,,A,]2 | ([A,,A,]2 C,2 E,2) A,4 z2 | %6
w: ~ ~ ~ ~|~ * * ~|
 [B,,F,A,]2 z2 [B,,F,A,]2 [B,,F,A,]2 z2 [B,,F,A,]2 | (G,2 B,2 A,2 [E,G,]4) z2 | %8
w: ~ ~ ~ ~|~ * * *|
 [E,B,]2 z4 [E,B,]2 z4 | [E,G,]2 z4 [A,,E,]4 z2 | [A,C]2 z2 [A,C]2 [E,B,]2 z2 [E,A,]2 | %11
w: * ~|~ ~|~ ~ ~ ~|
 [E,G,]6- [E,G,]4 z2 | [A,,A,]2 z2 [A,,A,]2 [A,,A,]2 z2 [A,,A,]2 | [C,A,]2 z2 [C,A,]2 [D,A,]6 | %14
w: ~ *|~ ~ ~ ~|~ ~ ~|
 [E,A,]2 z4 !fermata![E,,E,]4 z2 | [A,,E,]6 [A,,E,]4 z2 || A,2 G,2 F,2 A,2 G,2 F,2 | %17
w: ~ ~|~ ~|~ ~ ~ ~ ~ ~|
 [C,B,]6 [C,B,]6 | [F,A,]2 [F,A,]2 [F,A,]2 [D,F,]2 [D,F,]2 [D,F,]2 | (G,2 B,2 A,2 [C,G,]4) z2 | %20
w: ~ ~|~ ~ ~ ~ ~ ~|~ * * *|
 A,2 [A,D]2 [A,C]2 [A,E]2 [A,D]2 [A,C]2 | [C,A,]6 [D,A,]6 | %22
w: ~ ~ ~ ~ (4th verse)|we’ll hast-|
 [E,A,]2 [E,A,]2 [E,A,]2 [E,A,]2 !fermata![E,E]2 [E,D]2 | [A,,C]6- [A,,C]4 z2 |] %24
w: en, * * * * *||
V:4
 x12 | x12 | x12 | x12 | x12 | x12 | x12 | E,6- x6 | x12 | x12 | x12 | x12 | x12 | x12 | x12 | %15
 x12 || A,2 G,2 F,2 A,2 G,2 F,2 | x12 | x12 | C,6- x6 | A,2 x10 | x12 | x12 | x12 |] %24

